X: 9305
T: Dances At Kinvara, The
R: barndance
M: 4/4
K: Gmajor
G z B2 B3 B|c2 D2 F3 D|(FG)AB cdef|f/g/g2 aged|
G z B2 B3 B|c2 D2 F3 D|FGAB (cA)FA|A2 G2 G4 : :
B3 d cBcA|B2 b2 b4|agfe dCBA|G2 g2 g2 (3Bcd)|
g2 (3Bcd) e2 (3cBA)|d2 (3BAG) E3 G|(3EFG) AB cAFG|

